X: 10637
T: Down By The Sally Gardens
R: reel
M: 4/4
K: Dmajor
DE|:"D"F2ED"A"E2FA|"G"B4"D"A2dA|"G"B2AF"A"~E2>D2|1 "D"D6DE:|2 "D"D6A2||
"Bm"d2cAB2cd|"F#m"c2>B2A2FA|"G"B2AF "A"AB de|"D"d6 DE|
"D"F2ED"A"E2FA|"G"B4"D"A2dA|"G"B2AF"A"~E2>D2|D6||

